X:1
T:Title
%%score ( 1 2 ) { 3 | 4 }
L:1/8
M:4/4
K:G
V:1 treble nm="Grand Piano, Soprano"
V:2 treble 
V:3 treble nm="Choir Pad, Chigwell, 87.87 D"
V:4 bass 
V:1
 G4 [FA]2 [GB]2 | [GB]2 [FA]2 [EG]2 [DF]2 | [CE]4 [B,D]4 | z4 [DG]4 | [FA]2 [GB]4 [Gc]2 | %5
w: By~Claude~Goudimel~(1514\-1572) * *|||||
 [GB]4 [FA]4 | G4 z4 | G4 [FA]2 [GB]2 | [GB]2 [FA]2 [EG]2 [DF]2 | [CE]4 [B,D]4 | z4 [DG]4 | %11
w: ||||||
 [FA]2 [GB]4 [Gc]2 | [GB]4 [FA]4 | G4 z4 | [GB]4 [GB]2 [Gd]2 | [Gd]2 [Gc]2 [GB]2 [FA]2 | %16
w: |||||
 [GB]2 [GB]2 z4 | [Gd]4 [Gd]2 [Ge]2 | [Ge]2 [Gd]2 [Gc]2 [GB]2 | [FA]4 z4 | [GB]4 [Ad]2 [Ac]2 | %21
w: |||||
 [Ac]2 [GB]2 [EG]2 [FA]2 | [GB]4 [EG]4 | z4 [GB]4 | [GB]2 [Ec]4 [DB]2 | [FA]2 G2 G2 F2 | [DG]8 |] %27
w: ||||||
V:2
 x8 | x8 | x8 | x8 | x8 | x8 | x8 | x8 | x8 | x8 | x8 | x8 | x8 | x8 | x8 | x8 | x8 | x8 | x8 | %19
 x8 | x8 | x8 | x8 | x8 | x8 | z4 D4 | x8 |] %27
V:3
 B,4 D2 D2 | D2 D2[K:bass] B,2 B,2 | G,4 G,4 | z4[K:treble] B,4 | D2 D4 E2 | D4 D4 | B,4 z4 | %7
 B,4 D2 D2 | D2 D2[K:bass] B,2 B,2 | G,4 G,4 | z4[K:treble] B,4 | D2 D4 E2 | D4 D4 | B,4 z4 | %14
 D4 D2 B,2 | B,2 E2 D2 D2 | D2 D2 z4 | B,4 B,2 C2 | C2 B,2 E2 D2 | D4 z4 | D4 =F2 E2 | %21
 E2 E2 B,2 D2 | D4 C4 | z4[K:bass] D4 | D2 G,4 G,2 | A,2 C2 A,4 | B,8 |] %27
V:4
 G,4 D,2 G,2 | G,2 D,2 E,2 B,,2 | C,4 G,,4 | z4 G,4 | D,2 G,4 C,2 | G,4 D,4 | G,,4 z4 | %7
 G,4 D,2 G,2 | G,2 D,2 E,2 B,,2 | C,4 G,,4 | z4 G,4 | D,2 G,4 C,2 | G,4 D,4 | G,,4 z4 | %14
 G,4 G,2 G,2 | G,2 C,2 G,2 D,2 | G,2 G,2 z4 | G,4 G,2 C,2 | C,2 G,2 C,2 G,2 | D,4 z4 | %20
 G,4 D,2 A,2 | A,2 E,2 E,2 D,2 | G,4 C,4 | z4 G,,4 | G,,2 C,4 G,,2 | D,2 E,2 D,4 | G,,8 |] %27

